icons/type-icons/icons/application-vnd.snap.svg

<svg version="1.1" viewBox="0 0 22 22" xmlns="http://www.w3.org/2000/svg">
    <defs>
        <style id="current-color-scheme" type="text/css">.ColorScheme-Text {
        color:#232629;
      }</style>
    </defs>
    <path class="ColorScheme-Text" d="m 2,3 9.5,9 V 6 Z M 12,6 20,9.6666664 18,6 Z m 0,0.5566389 V 12 L 15.84615,8.3333333 Z M 9.5127119,11 3,20 11,12.5 Z" fill="#59786a"/>
</svg>

<?xml version="1.0" encoding="UTF-8"?>
<svg version="1.1" viewBox="0 0 22 22" xmlns="http://www.w3.org/2000/svg">
 <defs>
  <style id="current-color-scheme" type="text/css">.ColorScheme-Text {
        color:#232629;
      }</style>
 </defs>
 <path class="ColorScheme-Text" d="m2 3 9.5 9v-6zm10 3 8 3.6667-2-3.6667zm0 0.55664v5.4434l3.8462-3.6667zm-2.4873 4.4434-6.5127 9 8-7.5z" fill="#59786a"/>
</svg>
